X: 18
T:Lonesome Moonlight Waltz
R:Waltz
M:3/4
L:1/8
N:Bill Monroe
K:F
|:d3f(3dcA|d3f(3dcA|c3d/2c/2(3A-AF|D6|d3f(3dcA|d3f(3dcA|
G3^FG^G|A6|d3f(3dcA|d3f(3dcA|c3d/2c/2(3A-AF|D6|
c3d/2c/2(3A-AG|c3d/2c/2(3AFG|F6|[1F6:|[2F4FE||D3A,DF|G2F2GF|
A3FAd|c4-cA|G3^FGA|=B2G2Bd|[c6E6]|[^c6E6]|d3f(3dcA|
d3f(3dcA|c3d/2c/2(3A-AF|D6|c3d/2c/2(3A-AG|c3d/2c/2(3AFG|F6|F6||
z4[f2d2]||[a4f4][a2f2]|[a2f2]-[f4d4]|[e3c3]d/2c/2(3A-AF|[F4D4][f2d2]|[a4
f4][a2f2]|[a2f2]-[f4d4]|G3^FG^G|A4[f2d2]|
[a4f4][a2f2]|[a2f2]-[f4d4]|[e3c3]d/2c/2(3A-AF|[F6D6]|c3d/2c/2(3A-AG|c3d/
2c/2(3AFG|F6|F6||

